X:1
T:Nº. 1. March by Rossini (from Ricciardo e Zoraide).
T:Nº. 1. March by Rossini (from Ricciardo e Zoraide)
T:60 National Airs of Different Nations
T:Felix Horetzky (1796-1870)
T:Sheet music from www.MutopiaProject.org . Pubblico dominio
C:Felix Horetzky
C:(1796-1870)
Z:Sheet music from www.MutopiaProject.org . Pubblico dominio
%%score ( 1 2 3 )
L:1/8
M:4/4
K:D
V:1 treble-8 nm="N°. 1            .\nMAESTOSO"
V:2 treble-8 
V:3 treble-8 
V:1
!f! f2 e>f d2 d2 | e4 A2 z2 | d2 e>f g>a f>g | e2!<(! e/A/c/!<)!e/!f! a2 z2 || %4
S!p! f2{gf} e>f d2 d2 | e4 A2 z2 | z3/2 A/ d>e fa/>g/ eg/>f/ | d2- d/d/f/a/!f! d'2 z2!fine! :| %8
!p! [ce]2 [Ac]>[Bd] [ce]2 [df]2 | g4 b2 z2 |"_dolce." f>g f2- fedc | d>c B2 _b2 a z!D.S.! || %12
V:2
 A2 G>A [DF]2 [DF]2 | [A,G]4 G2 z2 | [FA]2 [Ec]>[Dd] [Ce]2 [Dd]2 | c2 x2 c2 x2 || %4
 A2 G>A [DF]2 [DF]2 | [A,G]4 G2 z2 | [DF]4 [DA]2 [A,G]2 | [DF]2 z2 f2 x2 :| A,4 G,2 F,2 | %9
 E,4 e2 z2 | d2 d2- dcB^A | B,4 [ce]2 x2 || %12
V:3
 D4 x4 | x8 | x8 | A,4 A,2 x2 || D4 x4 | x8 | x8 | x4 D2 z2 :| x8 | x4 G2 z2 | F,2 F,2 F,2 F,2 | %11
 x4 A,3 z || %12

